public/glyphs/glyph-share.svg

<svg width="12" height="17" viewBox="0 0 12 17" fill="none" xmlns="http://www.w3.org/2000/svg">
<path d="M1.09091 15.2713H10.9085C10.9112 15.2713 10.9091 6.54215 10.9091 6.54215L7.63636 6.54403V5.45312H10.8989C11.5163 5.45312 12 5.93929 12 6.53901V15.2763C12 15.8651 11.5137 16.3622 10.9139 16.3622H1.08608C0.485277 16.3622 0 15.876 0 15.2763V6.53901C0 5.95021 0.492993 5.45312 1.10113 5.45312H4.36364V6.54403H1.10113C1.09758 6.54403 1.09091 15.2713 1.09091 15.2713Z" fill="#81A7FF"/>
<path d="M5.98438 1.46534L3.21319 4.2706C3.01331 4.47294 2.68923 4.47294 2.48935 4.2706C2.28947 4.06825 2.28947 3.74019 2.48935 3.53785L5.62245 0.366225C5.82234 0.163884 6.14641 0.163884 6.3463 0.366225L9.4794 3.53785C9.67928 3.74019 9.67928 4.06825 9.4794 4.2706C9.27952 4.47294 8.95544 4.47294 8.75556 4.2706L5.98438 1.46534Z" fill="#81A7FF"/>
<path d="M5.4541 1.08984H6.54501V10.908H5.4541V1.08984Z" fill="#81A7FF"/>
</svg>

<svg viewBox="0 0 12 17" fill="none" xmlns="http://www.w3.org/2000/svg"><path d="M1.09 15.271h9.818c.003 0 .001-8.729.001-8.729l-3.273.002v-1.09H10.9c.617 0 1.101.485 1.101 1.085v8.737c0 .59-.486 1.086-1.086 1.086H1.086c-.6 0-1.086-.486-1.086-1.086V6.54a1.1 1.1 0 0 1 1.101-1.086h3.263v1.091H1.1c-.003 0-.01 8.727-.01 8.727zM5.984 1.465l-2.77 2.806a.507.507 0 0 1-.725 0 .523.523 0 0 1 0-.733L5.622.366a.507.507 0 0 1 .724 0L9.48 3.538c.2.202.2.53 0 .733a.507.507 0 0 1-.723 0L5.984 1.465z" fill="#81A7FF"/><path d="M5.454 1.09h1.091v9.818h-1.09V1.09z" fill="#81A7FF"/></svg>
